!!!COM: Palestrina, Giovanni Perluigi da
!!!OPR: Missa In illo tempore
!!!OMD: Benedictus
!!!OTL: Hosanna
**kern	**kern	**kern	**kern
*Ibass	*Itenor	*Icalto	*Icant
!Bassus	!Tenor	!Altus	!Cantus
*clefF4	*clefGv2	*clefG2	*clefG2
*k[]	*k[]	*k[]	*k[]
*A:aeo	*A:aeo	*A:aeo	*A:aeo
*M3/2	*M3/2	*M3/2	*M3/2
=32	=32	=32	=32
2E	2B	2e	2g#
2E	2B	2e	2g#
2E	2B	2e	2g#
=33	=33	=33	=33
1D	2.d	1f#	1a
.	4c	.	.
2G	2B	2g	2b
=34	=34	=34	=34
2C	2G	2e	2cc
1F	1A	2c	1a
.	.	2d	.
=35	=35	=35	=35
1E	2B	1e	1g#
.	2E	.	.
2r	2E	2r	2r
=36	=36	=36	=36
2AA	2E	2c#	2e
2AA	1A	2c#	2e
2AA	.	2c#	2e
=37	=37	=37	=37
1D	2A	1d	1f
.	1A	.	.
2C#	.	2e	2e
=38	=38	=38	=38
2.D	1.A	2f	2d
.	.	1d	1f
4E	.	.	.
4F	.	.	.
4G	.	.	.
=39	=39	=39	=39
2A	1A	1c#	1e
2AA	.	.	.
2r	2r	2r	2r
=40	=40	=40	=40
2E	2G#	2B	2e
2E	2G#	2e	2b
2E	2G#	2e	2b
=41	=41	=41	=41
2A	1A	2e	2cc
2F	.	2f	2.a
2G	2B	2d	.
.	.	.	4g
=42	=42	=42	=42
2C	2c	2e	1g
1D	1A	2.d	.
.	.	.	2f#
.	.	4c	.
=43	=43	=43	=43
1G	1.G	1B	1g
2r	.	2r	2r
=44	=44	=44	=44
2C	1G	2c	2e
2C	.	2c	2e
2E	2r	2B	2e
=45	=45	=45	=45
4D	2A	2d	4f
4E	.	.	4g
4F	2A	2.c	4a
4G	.	.	4b
2A	2A	.	2cc
.	.	4A	.
=46	=46	=46	=46
2G	1B	2d	4b
.	.	.	4a
2E	.	1e	4g
.	.	.	4f
2A	2c#	.	2e
=47	=47	=47	=47
2D	2d	2f	1a
1E	1B	1e	.
.	.	.	2g#
=48	=48	=48	=48
1.AA	1.A	1.c#	1.a
==	==	==	==
*-	*-	*-	*-
!!!CDT: 1525/^1526/-1594/2/2
!!!OCY: Italia
!!!AGN: Mass (Parody)
!!!AST: renaissance, vocal
!!!ASW: Motet 1518 (Moulu)
!!!PWK: Masses, Book 10
!!!RNB: Cadence finals: E,G,C
!!!YOR: Le Opere Complete, v. 27, p. 1
!!!YOO: Rome, Italy: Fratelli Scalera
!!!END: 1992//
!!!EED: John Miller
!!!YEC: Copyright 2000, John Miller
!!!YEN: United States of America
!!!YEM: Rights to all derivative electronic formats reserved.
!!!YEM: Refer to licensing agreement for further details.
!!!YEM: This file must be accompanied by the licensing agreement.
!!!YEM: A copy of the licensing agreement may be found at http://www.music-cog.ohio-state.edu/HumdrumDatabases/Palestrina/license.txt
!!!EMD: converted to Humdrum by Bret Aarden
